X:2963
T:Clarke's Gap
T:Orsapolska av Karen Myers  8/2007
C:Karen Myers
Z:Karen Myers (#2963)
M:3/4
L:1/8
R:Polska
O:Orsa, Dalarna
K:Gm
(g>f) (dc) B>G | (AF) G2- G>(A | B>c) (BA) B>c | (3d2 (g2 f2) (d2 | g>a) (ba) g>f |
d2 d4 | (g>f) (dc) B>G | (AF) G2- G>(A | B>A) (GF) D>F | G2 G4 :|
|: z2 (B>A) G>(B | c>)B A2 [F2A2]  | G2 (b>a) g>f | d2 d4 |
(3c2 (A2 c2) f>c | d2 d2- d>(B | A>)(G FA) c>A | B2 G4 :|

